X:1
T:Felix Mendelssohn Bartholdy (1839)
T:Psalm 42 - Wie der Hirsch schreit - 1: Coro
T:op. 42, MWV A 15 - Chorpartitur
T:Set by C. Höcker - Jan. 2016 - CC0
T:Set by C. Höcker - Jan. 2016 - CC0
T:Set by C. Höcker - Jan. 2016 - CC0
T:Set by C. Höcker - Jan. 2016 - CC0
T:Set by C. Höcker - Jan. 2016 - CC0
T:Set by C. Höcker - Jan. 2016 - CC0
T:Set by C. Höcker - Jan. 2016 - CC0
T:Set by C. Höcker - Jan. 2016 - CC0
Z:Set by C. Höcker - Jan. 2016 - CC0
%%score [ 1 2 3 4 ]
L:1/8
Q:1/4=110
M:6/4
K:F
V:1 treble nm="Sopran" snm="S."
V:2 treble nm="Alt" snm="A."
V:3 treble transpose=-12 nm="Tenor" snm="T."
V:4 bass nm="Bass" snm="B."
V:1
 z12 | z12 | z12 | z12 | z12 | z12 |!p!"^Violino 1" A2 B2 c2 d2 e2 d2 | c2 f2 c2 A2 B2 G2 | %8
w: ||||||||
 F2 z2 z8 | z12 | z12 | z12 | z6 z2!p! c2 c2 | d6 c4 z2 | F2 F2 B2 B4 A2 |!<(! z2 B2 B2 c4 F2 | %16
w: ||||Wie der|Hirsch schreit|nach fri- schem Was- ser,|wie der Hirsch nach|
 (B2 c2) d2 _e6 | d4!<)!!f! d2 f2 c2 c2 | c4 c2 c4 d2 | =e4 z2 z6 | z6 z2 z2!p! d2 | %21
w: fri- * schem Was-|ser, so ~schreit mei- ne|See- le, Gott, zu|dir,|so|
!<(! g2 e2 d2 c4 c2 | f4 e2 d4 c2!<)! | =B2!f! G2 G2 A6 | G4 z2 c2 d2 e2 | f6 e4 e2 | %26
w: schreit mei- ne See- le,|Gott, zu dir, zu|dir, wie der Hirsch|schreit nach fri- schem|Was- ser, so|
 g2 d2 e2 f4 e2 | d4 d2 c6- | c6- c2 G2 =B2 | (c2 d2 e2 f6- | f2 e2) c2 e4 d2 | c4 z2 z6 | z12 | %33
w: schreit mei- ne See- le,|Gott, zu dir,|_ _ mei- ne|See- * * *|* * le, Gott, zu|dir,||
 z12 | z12 | z2 z2!p! c2 e2 c2 =B2 | A4 A2 (d2 =B2) A2 | ^G4 z2 A6- | (A2 _B2) A2 G6- | %39
w: ||so schreit mei- ne|See- le, Gott, _ zu|dir, Gott,|_ _ zu dir,|
 (G2 A2) G2 ^F2 z2 c2 | B2 c2 d2 _e6- | (e2 d2) c2 B4 B2 | (B2 A4) z2 z2!p! A2 | %43
w: _ _ zu dir, so|schreit mei- ne See-|* * le, Gott, zu|dir, _ zu|
 (A2 ^G2) f2 e2 c2 =B2 | A4 A2 (d2 =B2) A2 | ^G4 G2 A6 | z12 | z2 z2!<(! A2 d2 _B2 A2 | %48
w: dir, _ so schreit mei- ne|See- le, Gott, _ zu|dir, zu dir,||so schreit mei- ne|
 G4 G2 (=e2 c2) _B2 | A4!<)!!f! f2 e2 ^c2 d2 | A4 f2 (e2 ^c2) d2 | ^c4 z2 z6 | z2!ff! ^c2 c2 d6 | %53
w: See- le, Gott, _ zu|dir, so schreit mei- ne|See- le, Gott, _ zu|dir,|wie der Hirsch|
 ^c4 A2 f2 f2 f2 | B4 B2 _e4 e2 | d4 z2 z6 | z12 | z2 z2!ff! d2 d2 d2 d2 | _e4 e2 e4 e2 | %59
w: schreit, so schreit mei- ne|See- le, Gott, zu|dir,||so schreit mei- ne|See- le, Gott, zu|
 d4 d2 d2 d2 d2 | g4 d2 f4 f2 | =e4 z2 z2!f! c2 c2 | e6 c2 c2 c2 | e12 | c12- | c2 z2 z2 z6 | z12 | %67
w: dir, so schreit mei- ne|See- le, Gott, zu|dir, wie der|Hirsch schreit, wie der|Hirsch|schreit,|_||
 z12 | z12 | z6 z2 z2!p! A2 | c2 G2 A2 B4 A2 | G4 G2 F6- | F6!f! (A2 c2) e2 | f6- (f2 e2 d2 | %74
w: ||so|schreit mei- ne See- le,|Gott, zu dir,|_ mei- * ne|See- * * *|
 c4) F2 (A2 G3) F | F4 z2 z6 | z6 z2 z2!p! B2 | A6!<(! G4 F2!<)! |!f! d4 c2 (B2 G3) F | %79
w: * le, Gott, _ zu|dir,|zu|dir, mei- ne|See- le, Gott, _ zu|
 F2!f! c2 c2 d6 | c4 z2 F2 G2 A2 | B6 A4!p! A2 | A2 G2 F2 F4 G2 | F6 E6 | F12- | !fermata!F12 |] %86
w: dir, wie der Hirsch|schreit nach fri- schem|Was- ser, so|schreit mei- ne See- le,|Gott, zu|dir.|_|
V:2
 z12 | z12 | z12 | z12 | z12 | z12 | z12 | z12 | z2!p! C2 C2 D6 | C4 z2 F2 G2 A2 | B6 A4 A2 | %11
w: ||||||||Wie  der  Hirsch|schreit nach  fri- schem|Was- ser, so|
 c2 G2 A2 B4 A2 | G4 G2 F6 | z2 F2 F2 A6 | F4 z2 F2 F2 F2 |!<(! F4 _E2 A6 | (B2 A2) B2 (G4 F2) | %17
w: schreit  mei- ne See- le,|Gott, zu dir,|wie der Hirsch|schreit nach fri- schem|Was- ser, nach|fri- * schem Was- *|
 F4!<)!!f! F2 F2 c2 B2 | A4 _A2 G4 =B2 | c4!p! G2 c2 =A2 G2 | F4 A2 (d2 =B2) A2 | %21
w: ser, so schreit mei- ne|See- le, Gott, zu|dir, so schreit mei- ne|See- le, Gott, _ zu|
!<(! G4 z2 z2 A2 A2 | (A2 =B2) c2 (c2 B2) A2!<)! | G2!f! G2 G2 A6 | G2 c2 c2 (c4 _B2) | %25
w: dir, mei- ne|See- * le, Gott, _ zu|dir, wie der Hirsch|nach fri- schem Was- *|
 A4 G2 G2 c2 G2 | G6 F2 z2 z2 | z6 z2 z2!f! c2 | (=B4 A2) G4 F2 | (E2 F2) G2 (A2 =B2) c2 | %30
w: ser, so schreit mei- ne|See- le,|so|schreit _ mei- ne|See- * le, Gott, _ zu|
 G4 z2 G4 G2 | G4 z2 z6 | z12 | z12 | z12 | z12 | z12 | z2 z2!p! E2 A2 F2 E2 | D4 D2 (G2 E2) D2 | %39
w: dir, Gott, zu|dir,||||||so schreit mei- ne|See- le, Gott, _ zu|
 ^C4 z2 D6- | (D2 _E2) D2 (C4 c2- | c2 B2) A2 G6- | G2 z2!p! E2 A4 z2 | z2 z2 ^G2 A4 z2 | z12 | %45
w: dir, Gott,|_ _ zu dir, _|_ _ zu dir,|_ zu dir,|zu dir,||
 z2 z2 E2!<(! A2 F2 E2 | D4 D2 (G2 E2) D2 | (^C4 A2- A2 =G2) F2 | F6 z2 G2 G2 | %49
w: so schreit mei- ne|See- le, Gott, _ zu|dir, _ _ _ zu|dir, Gott, zu|
 G4!<)!!f! F2 G2 G2 G2 | A4 A2 B4 z2 | z2!ff! A2 A2 B6 | A2 A2 A2 B6 | A4 A2 A2 A2 A2 | %54
w: dir so schreit mei- ne|See- le, Gott,|wie der Hirsch|schreit, wie der Hirsch|schreit, so schreit mei- ne|
 G4 G2 A4 A2 | B4 z2 z6 | z12 | z2 z2!ff! B2 B2 B2 B2 | B4 B2 B4 A2 | B4 B2 B2 B2 A2 | %60
w: See- le, Gott, zu|dir,||so schreit mei- ne|See- le, Gott, zu|dir, so schreit mei- ne|
 G4 G2 d4 G2 | G2!f! G2 G2 A6 | G2 G2 G2 A4 A2 | G12 | G12 | z2!p! C2 C2 D6 | C4 z2 F2 G2 A2 | %67
w: See- le, Gott, zu|dir, wie der Hirsch|schreit, wie der Hirsch, der|Hirsch|schreit,|wie der Hirsch|schreit nach * frischem|
 B6 A4 A2 | c2 G2 A2 B4 A2 | G4 G2 F6 | z12 | z6 z2 z2!f! c2 | (c4 B2) A4 G2 | (F2 G2) A2 B6- | %74
w: Was- ser, so|schreit mei- ne See- le,|Gott, zu dir,||so|schreit _ mei- ne|See- * le, Gott,|
 (B2 A2) F2 (F2 E3) F | F4 z2 z6 | z2 z2!p! F2 E6 | z6!f! c6- | (c2 B2) A2 (G2 E3) F | %79
w: _ _ zu dir, _ zu|dir,|zu dir,|Gott,|_ _ zu dir, _ zu|
 F2!f! F2 F2 D6 | F4 z2 D2 D2 F2 | (D4 E2) F4!p! F2 | D2 D2 D2 D4 D2 | C6 C6 | C12- | %85
w: dir, wie der Hirsch|schreit nach fri- schem|Was- * ser, so|schreit mei- ne See- le,|Gott, zu|dir.|
 !fermata!C12 |] %86
w: _|
V:3
 z12 | z12 | z12 | z12 | z12 | z12 | z12 | z12 | z12 | z12 | z12 | z12 | z12 | z6 z2!p! c2 c2 | %14
w: |||||||||||||Wie der|
 d6 c4 z2 |!<(! B2 B2 _e2 e6 | d2 c2 B2 B4 A2 | B2 c2!<)!!f! d2 c2 f2 =e2 | f4 c2 c4 f2 | %19
w: Hirsch schreit|nach fri schem Was-|* ser, nach fri- schem|Was- ser, so schreit mei- ne|See- le, Gott, zu|
 e4 z2 z2 z2!p! c2 | f2 d2 c2 =B4 B2 |!<(! (=B2 c2) G2 c2 A2 G2 | F4 G2 (A2 d2) d2!<)! | %23
w: dir, so|schreit mei- ne See- le,|Gott, _ so schreit mein- ne|See- le, Gott _ zu|
 d4 z2 z2!f! f2 f2 | e6 e2 f2 c2 | (c4 d2) e4 e2 | d2 d2 ^c2 (d2 =B2) =c2 | c4 =B2 (c2 e2) g2 | %28
w: dir, wie der|Hirsch nach fri- schem|Was- * ser, so|schreit mei- ne See- * le,|Gott, zu dir, _ so|
 (g4 f2) e4 d2 | c6 c2 d2 d2 | (d2 c2) c2 c4 f2 | e4 z2 z6 | z12 | z12 | z12 | z12 | z12 | z12 | %38
w: schreit _ mei- ne|See- le, mei- ne|See- * le, Gott, zu|dir,|||||||
 z12 | z2 z2!p! A2 d2 B2 A2 | G4 G2 (c2 A2) G2 | ^F4 (d2- d2 ^c2 d2 | e2 f2) e2 d4 z2 | %43
w: |so schreit mei- ne|See- le, Gott, _ zu|dir, Gott, _ _ _|_ _ zu dir,|
 z2 z2!p! d2 e6- | (e2 f2 e2) d6- | (d2 c2) =B2 A4!<(! A2 | d2 _B2 A2 G4 G2 | (g2 f2) e2 (d6 | %48
w: zu dir,|_ _ _ Gott,|_ _ zu dir, so|schreit mei- ne See- le,|Gott, _ zu dir,|
 d2) f2 f2 e6- | e4!<)!!f! d2 ^c2 e2 _B2 | A4 A2 g4 f2 | e4 z2 z6 | z12 | z2 z2!ff! A2 d2 d2 d2 | %54
w: _ Gott, zu dir,|_ so schreit mei- ne|See- le, Gott, zu|dir,||so schreit mei- ne|
 _e4 g2 g4 ^f2 | g2 d2 d2 _e6 | d2 d2 d2 _e6 | d4!ff! d2 d2 B2 G2 | g4 _e2 c4 c2 | d4 f2 f2 f2 f2 | %60
w: See- le, Gott, zu|dir, wie der Hirsch|schreit, wie der Hirsch|schreit, so schreit mei- ne|See- le, Gott, zu|dir, so schreit rnei- ne|
 d4 d2 d4 d2 | c2!f! e2 e2 f6 | e2 e2 e2 f4 f2 | e12 | e12- | e2 z2 z2 z6 | z12 | z12 | z12 | %69
w: See- le, Gott, zu|dir, wie der Hirsch|schreit, wie der Hirsch, der|Hirsch|schreit,|_||||
 z6 z2 z2!p! f2 | e2 c2 _e2 d4 c2 | B4 B2 (A2 c2)!f! f2 | (e4 d2) c4 B2 | (A2 B2) c2 (d2 e2) f2 | %74
w: so|schreit mei- ne See- le,|Gott, zu dir, _ so|schreit _ mei- ne|See- * le, Gott, _ zu|
 c4 z2 (c2 B3) A | A4 z2 z2 z2!p! B2 | A6 z6 | z2 z2!f! f2 e4 _e2 | d6- d2 z2 z2 | z2!f! c2 c2 f6 | %80
w: dir, Gott, _ zu|dir, zu|dir,|zu dir, zu|dir, _|wie der Hirsch|
 c4 z2 d2 d2 c2 | B6 c4!p! c2 | c2 B2 A2 G4 B2 | A6 B6 | A12- | !fermata!A12 |] %86
w: schreit nach fri- schem|Was- ser, so|schreit mei- ne See- le,|Gott, zu|dir.|_|
V:4
 z12 | z12 | z12 | z12 | z12 | z12 | z12 | z12 | z12 | z12 | z12 | z12 | z12 | z12 | %14
w: ||||||||||||||
 z6 z2!p! F,2 F,2 |!<(! G,6 F,4 z2 | F,2 _E,2 D,2 C,6 | B,,4!<)!!f! B,2 A,2 A,2 G,2 | %18
w: Wie der|Hirsch schreit|nach fri schem- Was-|ser, so schreit mei- ne|
 F,4 F,2 =E,4 D,2 | C,6!p! C,6 | D,6- D,2 z2 D,2 |!<(! E,4 E,2 A,2 F,2 E,2 | D,4 E,2 F,4 ^F,2!<)! | %23
w: See- le, Gott, zu|dir, zu|dir, _ zu|dir, so schreit mei- ne|See- le, Gott, zu|
 G,4 z2 z2!f! =F,2 F,2 | C6 C2 A,2 G,2 | (A,4 =B,2) C4 C2 | =B,2 _B,2 A,2 D,4 E,2 | %27
w: dir, wie der|Hirsch nach fri- schem|Was- * ser, so|schreit mei- ne See- le,|
 (F,2 G,2) D,2 E,6 | F,6 G,6 | A,6 A,2 D2 C2 | (=B,2 C2) E,2 G,4 G,2 | C,4 z2 z6 | %32
w: Gott, _ zu dir,|mei- ne|See- le, mei- ne|See- * le, Gott, zu|dir,|
"^Bassi" C,4 z2 C,4 z2 | C,4 z2 C,6- | C,2 E,2 A,2 G,4 G,,2 | z12 | z12 | z12 | z12 | z12 | z12 | %41
w: |||||||||
 z2 z2!p! D,2 G,2 =E,2 D,2 | ^C,4 C,2 (F,2 D,2) =C,2 | =B,,4 z2 C,4 C,2 | F,6- F,2 F,2 F,2 | %45
w: so schreit mei- ne|See- le, Gott, _ zu|dir, Gott, zu|dir, _ mei- ne|
 (E,4 D,2) ^C,4!<(! A,,2 | _B,,2 =C,2 D,2 E,2 F,2 G,2 | A,4 A,2 _B,6 | =B,4 B,2 (=C6 | %49
w: See- * le, so|schreit mei- ne See- le zu|dir, zu dir,|Gott, zu dir,|
 ^C4)!<)!!f! D2 E,2 E,2 E,2 | F,4 F,2 G,4 G,2 | A,4 z2 z6 | z12 | z2 z2!ff! A,2 D2 D2 D2 | %54
w: _ so schreit mei- ne|See- le, Gott, zu|dir,||so schreit mei- ne|
 D4 D2 C4 C2 | B,4 z2 z6 | z2 B,2 B,2 C6 | B,4!ff! G,2 G,2 G,2 G,2 | C,4 C,2 F,4 F,2 | %59
w: See- le, Gott, zu|dir,|wie der Hirsch|schreit, so schreit mei- ne|See- le, Gott, zu|
 B,4 B,2 B,2 B,2 B,2 | =B,4 B,2 B,4 B,2 | C4 z2 z2!f! F,2 F,2 | C6 F,2 F,2 F,2 | C,12 | C,12 | %65
w: dir, so schreit mei- ne|See- le, Gott, zu|dir, wie der|Hirsch schreit, wie der|Hirsch|schreit,|
 z2!p! C,2 C,2 D,6 | C,4 z2 F,2 G,2 A,2 | B,6 A,4 A,2 | C2 G,2 A,2 B,4 A,2 | G,4 G,2 F,6 | z12 | %71
w: wie der Hirsch|schreit nach- fri- schem|Was- ser, so|schreit mei- ne See- le,|Gott, zu dir,||
 z6!f! A,6 | B,6 C4 C,2 | (D,6- D,2 G,2 F,2 | E,2 F,2) A,,2 C,4 C,2 | F,4!p! F,2 E,6 | z12 | %77
w: so|schreit mei- ne|See- * * *|* * le, Gott, zu|dir, zu dir,||
 z2 z2!f! A,2 C2 G,2 A,2 | B,6- B,2 C2 B,2 | A,2!f! A,2 A,2 B,6 | A,4 z2 B,2 B,2 A,2 | %81
w: so schreit mei- ne|See- * le zu|dir, wie der Hirsch|schreit nach fri- schem|
 G,6 F,4!p! A,,2 | B,,2 B,,2 B,,2 B,,4 B,,2 | C,6 C,6 | F,12- | !fermata!F,12 |] %86
w: Was- ser, so|schreit mei- ne See- le,|Gott, zu|dir.|_|

